packages/icons/src/svg/tds-negative.svg

<svg xmlns="http://www.w3.org/2000/svg" viewBox="0 0 16 16">
  <g>
    <path d="M15.191,6.70316393 C14.905,6.67516393 14.774,6.69916393 14.59,6.80916393 C14.297,6.97216393 14.099,7.28216393 14.099,7.64016393 C14.099,7.99516393 14.296,8.30516393 14.587,8.46816393 C14.205,11.4601639 11.82,13.8361639 8.819,14.2131639 C8.654,13.9331639 8.349,13.7451639 8,13.7451639 C7.649,13.7451639 7.343,13.9351639 7.179,14.2181639 C4.167,13.8541639 1.77,11.4801639 1.379,8.48516393 C1.689,8.32916393 1.901,8.01016393 1.901,7.64016393 C1.901,7.26816393 1.687,6.94816393 1.375,6.79216393 C1.374,6.79216393 1.372,6.79116393 1.37,6.79016393 C1.694,4.57516393 3.103,2.60716393 5.23,1.61516393 C8.424,0.126163928 12.273,1.35516393 14.015,4.41216393 L13.199,4.79316393 L14.916,5.59716393 L15.404,3.76516393 L14.582,4.14716393 C12.69,0.775163928 8.475,-0.585836072 4.966,1.05016393 C2.64,2.13516393 1.1,4.29016393 0.751,6.71416393 C0.322,6.80616393 0,7.18416393 0,7.64016393 C0,8.10316393 0.335,8.48916393 0.776,8.57116393 C1.202,11.8261639 3.791,14.4001639 7.058,14.8141639 C7.118,15.2801639 7.517,15.6411639 8,15.6411639 C8.485,15.6411639 8.885,15.2781639 8.943,14.8091639 C12.191,14.3821639 14.76,11.8161639 15.186,8.57716393 C15.646,8.51116393 16,8.11716393 16,7.64016393 C16,7.16416393 15.649,6.77116393 15.191,6.70316393"/>
    <path d="M6.272,7.81936393 L6.575,7.95836393 L6.765,8.52336393 L7.408,8.33836393 L7.453,8.35836393 L7.732,8.96936393 L6.786,11.0413639 L6.255,10.0313639 L5.144,10.2913639 L6.272,7.81936393 Z M7.998,4.69136393 C8.838,4.69136393 9.519,5.37236393 9.519,6.21236393 C9.519,7.05136393 8.838,7.73336393 7.998,7.73336393 C7.158,7.73336393 6.477,7.05136393 6.477,6.21236393 C6.477,5.37236393 7.158,4.69136393 7.998,4.69136393 L7.998,4.69136393 Z M10.853,10.2913639 L9.742,10.0313639 L9.21,11.0413639 L8.265,8.96936393 L8.544,8.35836393 L8.588,8.33836393 L9.231,8.52336393 L9.421,7.95836393 L9.725,7.81936393 L10.853,10.2913639 Z M4.293,10.9883639 L6.001,10.5893639 L6.817,12.1403639 L7.998,9.55336393 L9.179,12.1403639 L9.996,10.5893639 L11.704,10.9883639 L10.175,7.63936393 L10.066,6.95836393 L10.632,6.49336393 L10.193,5.90736393 L10.48,5.23236393 L9.818,4.91736393 L9.758,4.18736393 L9.026,4.21536393 L8.633,3.59636393 L7.998,3.96236393 L7.363,3.59636393 L6.971,4.21536393 L6.239,4.18736393 L6.178,4.91736393 L5.517,5.23236393 L5.803,5.90736393 L5.364,6.49336393 L5.931,6.95836393 L5.821,7.63936393 L4.293,10.9883639 Z"/>
  </g>
</svg>

<svg xmlns="http://www.w3.org/2000/svg" viewBox="0 0 16 16">
	<path d="M15.191 6.703c-.286-.028-.417-.004-.601.106a.95.95 0 0 0-.003 1.66 6.663 6.663 0 0 1-5.768 5.744.95.95 0 0 0-1.64.005 6.666 6.666 0 0 1-5.8-5.733.944.944 0 0 0-.004-1.693c-.001 0-.003 0-.005-.002a6.79 6.79 0 0 1 3.86-5.175c3.194-1.489 7.043-.26 8.785 2.797l-.816.381 1.717.804.488-1.832-.822.382C12.69.775 8.475-.586 4.966 1.05A7.412 7.412 0 0 0 .751 6.714.948.948 0 0 0 0 7.64a.95.95 0 0 0 .776.931 7.261 7.261 0 0 0 6.282 6.243.95.95 0 0 0 1.885-.005 7.258 7.258 0 0 0 6.243-6.232.948.948 0 0 0 .005-1.874"/>
	<path d="M6.272 7.82l.303.138.19.565.643-.185.045.02.279.611-.946 2.072-.531-1.01-1.111.26L6.272 7.82zm1.726-3.13a1.521 1.521 0 1 1 0 3.042 1.521 1.521 0 0 1 0-3.042zm2.855 5.6l-1.111-.26-.532 1.01-.945-2.072.279-.61.044-.02.643.184.19-.565.304-.139 1.128 2.472zm-6.56.697l1.708-.399.816 1.551 1.181-2.587 1.181 2.587.817-1.55 1.708.398-1.529-3.349-.109-.68.566-.466-.439-.586.287-.675-.662-.315-.06-.73-.732.028-.393-.619-.635.366-.635-.366-.392.62-.732-.029-.061.73-.661.315.286.675-.439.586.567.465-.11.681-1.528 3.35z"/>
</svg>
